X:1
T:Zeuch Ein, 76.76.67.76
T:Zeuch Ein, 76.76.67.76
T:Johann Crüger, 1653
T:Public Domain Courtesy of the Cyber Hymnal™
C:Johann Crüger, 1653
Z:Public Domain
Z:Courtesy of the Cyber Hymnal™
%%score ( 1 2 ) ( 3 4 )
L:1/8
M:4/4
K:F
V:1 treble 
V:2 treble 
V:3 bass 
V:4 bass 
V:1
 [CA]4 | [CF]4 [Fc]4 | [FB]2 [FA]2 G4 | F4 z2 [FA]2 | [DG]2 [DF]2 [^CE]2 [A,F]2 | [CG]4 [CA]4 | %6
 [CF]4 [Fc]4 | [FB]2 [FA]2 G4 | F4 z2 [FA]2 | [DG]2 [DF]2 [^CE]2 [A,F]2 | [CG]4 z2 [EG]2 | %11
 [FA]2 [Cc]2 [Dc]2 [D=B]2 | [Ec]4 z2 [Ec]2 | [EG]2 [DF]2 [CG]2 [CA]2 | [DB]4 [CA]2 [FA]2 | %15
 [FB]2 [Fd]2 [_Ec]2 [DB]2 | [DA]4 [=B,G]4 | z2 [CG]2 [DB]2 [EB]2 | [FA]4 G4 | [CF]4 |] %20
V:2
 x4 | x8 | x4 (F2 E2) | F4 x4 | x8 | x8 | x8 | x4 (F2 E2) | F4 x4 | x8 | x8 | x8 | x8 | x8 | x8 | %15
 x8 | x8 | x8 | x4 (F2 E2) | x4 |] %20
V:3
 F,4 | [F,,A,]4 [A,,C]4 | [B,,D]2 [F,,C]2 [C,C]4 | [F,A,]4 z2 [F,,C]2 | %4
 [G,,B,]2 [D,A,]2 [A,,A,]2 [D,F,]2 | [C,E,]4 F,4 | [F,,A,]4 [A,,C]4 | [B,,D]2 [F,,C]2 [C,C]4 | %8
 [F,A,]4 z2 [F,,C]2 | [G,,B,]2 [D,A,]2 [A,,A,]2 [D,F,]2 | [C,E,]4 z2 [C,C]2 | %11
 [F,C]2 [E,G,]2 [F,A,]2 G,2 | [C,G,]4 z2 [C,G,]2 | [C,C]2 [D,A,]2 [E,G,]2 F,2 | %14
 [B,,F,]4 [F,,F,]2 [F,C]2 | [D,B,]2 [B,,B,]2 [C,G,]2 [G,,G,]2 | (G,2 ^F,2) [G,,G,]4 | %17
 z2 [C,E,]2 [B,,F,]2 [G,,B,]2 | C4 [C,C]4 | [F,,A,]4 |] %20
V:4
 F,4 | x8 | x8 | x8 | x8 | x4 F,4 | x8 | x8 | x8 | x8 | x8 | x6 G,2 | x8 | x6 F,2 | x8 | x8 | %16
 D,4 x4 | x8 | (A,,2 B,,2) x4 | x4 |] %20

